X: 9172
T: Dálaigh's
R: polka
M: 2/4
K: Edorian
|:E>F GA|Be ed|Bd/B/ AF|EF DF|
E>F GA|B/c/d ed|Bd/B/ AF|1 GE ED:|2 GE E2||
|:e e2 f|g>a fe|a>g fe|a/g/f/e/ df|
e e2 f|g>a ge|d>B AF|1 GE E2:|2 GE ED||

